OSCFunc.trace(false);
OSCFunc.trace(true, true);
NetAddr.localAddr.port;

654720.log2;

[45,32].mean

unixCmd ("sudo killall python3");
unixCmd("python3 /mnt/sombat2020/temp/code/mcp3008/mcp3008_8.py --port %".format(NetAddr.localAddr.port).postln )
